X: 191
T: Lady Carrick's Delight    (G)
B: 204 Favourite Country Dances
O: Straight & Skillern 1775
N: Published by Straight & Skillern, London ca.1775
F: http://imslp.org/wiki/204_Favourite_Country_Dances_(Various) p.95 #190
Z: 2014 John Chambers <jc:trillian.mit.edu>
P: Play twice for once through the dance.
M: C
L: 1/8
K: G
% - - - - - - - - - - - - - - - - - - - - - - - - -
|:\
"G"GABc dedB | "C"cBAG "D7"ADDC |\
"G"B,CDE "Am"cBAG | "D7"BdAF "G"G2[G2G,2] :|
|:\
"G"DCB,C D2G2 | "G"DCB,C D2G2 |\
"G"dedB "Am"cBAG | "D7"BdAF "G"G2[G2G,2] :|
% - - - - - - - - - - - - - - - - - - - - - - - - -
%%begintext align
%% Right hands across at top .| left hands back
%% again .|. Cast off one Cu. & turn your Partner :|.
%% lead thro' the bott: & cast up :|: swing Corners &
%% Partners .|| hands 6 round .||. Right & Left :||:
%%endtext
